img/vk.svg

<svg width="13" height="9" viewBox="0 0 13 9" fill="none" xmlns="http://www.w3.org/2000/svg">
<path d="M12.8841 7.40894C12.8492 7.34464 12.633 6.82839 11.593 5.76731C10.5041 4.65621 10.6504 4.83663 11.9619 2.91543C12.7606 1.74538 13.08 1.03085 12.98 0.72539C12.8849 0.434218 12.2975 0.511031 12.2975 0.511031L10.3441 0.523535C10.3441 0.523535 10.1994 0.502099 10.0914 0.572659C9.98654 0.642326 9.9191 0.803096 9.9191 0.803096C9.9191 0.803096 9.60952 1.70876 9.19674 2.47867C8.32648 4.10334 7.97789 4.18908 7.8357 4.08816C7.50498 3.85325 7.58787 3.14319 7.58787 2.63944C7.58787 1.06479 7.80482 0.408317 7.16452 0.238615C6.95163 0.182346 6.79562 0.144833 6.25202 0.138581C5.55484 0.130542 4.96411 0.14126 4.63015 0.320786C4.40751 0.440471 4.23606 0.707527 4.34088 0.722711C4.47007 0.741467 4.7626 0.809348 4.91779 1.04157C5.1185 1.34078 5.11118 2.01423 5.11118 2.01423C5.11118 2.01423 5.22657 3.86754 4.84223 4.09798C4.57814 4.25607 4.21655 3.93364 3.44056 2.45902C3.04322 1.7043 2.74257 0.86919 2.74257 0.86919C2.74257 0.86919 2.68488 0.713779 2.58168 0.630715C2.45655 0.529787 2.28104 0.497633 2.28104 0.497633L0.423525 0.510137C0.423525 0.510137 0.144817 0.519069 0.0424345 0.652151C-0.0485722 0.770942 0.0351215 1.01567 0.0351215 1.01567C0.0351215 1.01567 1.4896 4.75535 3.13585 6.64082C4.6464 8.3691 6.3609 8.25566 6.3609 8.25566H7.13771C7.13771 8.25566 7.37254 8.22708 7.49198 8.08507C7.60249 7.95467 7.59843 7.70994 7.59843 7.70994C7.59843 7.70994 7.58299 6.56401 8.06728 6.3952C8.54425 6.22907 9.15692 7.50273 9.80616 7.99307C10.2969 8.36374 10.6699 8.28246 10.6699 8.28246L12.4063 8.25566C12.4063 8.25566 13.3148 8.19404 12.8841 7.40894Z" fill="white"/>
</svg>

<svg width="13" height="9" fill="none" xmlns="http://www.w3.org/2000/svg"><path d="M12.884 7.409c-.035-.064-.251-.58-1.291-1.642-1.089-1.11-.943-.93.369-2.852.799-1.17 1.118-1.884 1.018-2.19-.095-.29-.683-.214-.683-.214l-1.953.013s-.145-.022-.253.049c-.104.07-.172.23-.172.23s-.31.906-.722 1.676c-.87 1.624-1.22 1.71-1.361 1.61-.331-.236-.248-.946-.248-1.45 0-1.574.217-2.23-.423-2.4-.213-.057-.37-.094-.913-.1C5.555.13 4.964.14 4.63.32c-.222.12-.394.387-.29.402.13.018.423.086.578.319.2.299.193.972.193.972s.116 1.854-.269 2.084c-.264.158-.625-.164-1.401-1.639-.398-.755-.698-1.59-.698-1.59S2.685.714 2.582.631C2.457.53 2.28.498 2.28.498L.424.51S.144.52.042.652c-.09.119-.007.364-.007.364s1.455 3.74 3.1 5.625c1.511 1.728 3.226 1.615 3.226 1.615h.777s.235-.029.354-.17c.11-.131.106-.376.106-.376s-.015-1.146.47-1.315c.476-.166 1.089 1.108 1.738 1.598.49.37.864.29.864.29l1.736-.027s.909-.062.478-.847z" fill="#fff"/></svg>
